src/icons/wrangler.svg

<svg width="16" height="16" viewBox="0 0 16 16" fill="none" xmlns="http://www.w3.org/2000/svg">
<path d="M5.085 3.144L6.5 5.501L5.202 7.661C5.1402 7.76273 5.10751 7.87947 5.10751 7.9985C5.10751 8.11753 5.1402 8.23427 5.202 8.336L6.5 10.501L5.086 12.859C4.82512 12.7411 4.60465 12.5492 4.452 12.307L2.2 8.693C2.068 8.483 2 8.243 2 8C2 7.757 2.069 7.518 2.2 7.307L4.45 3.693C4.60336 3.45179 4.82416 3.26089 5.085 3.144ZM11.548 3.693L13.798 7.307C14.068 7.733 14.068 8.267 13.798 8.693L11.548 12.307C11.4124 12.5211 11.2232 12.6959 10.999 12.814C10.768 12.9363 10.5104 13.0002 10.249 13H8L10.8 8.336C10.8612 8.23462 10.8936 8.11843 10.8936 8C10.8936 7.88157 10.8612 7.76538 10.8 7.664L7.998 3H10.248C10.512 3 10.771 3.064 10.998 3.186C11.226 3.308 11.416 3.483 11.548 3.693Z" fill="#F78C6C"/>
<path d="M5.74896 13C5.51896 13 5.28696 12.95 5.08496 12.859L7.86096 8.232C7.90311 8.16195 7.92538 8.08175 7.92538 8C7.92538 7.91825 7.90311 7.83805 7.86096 7.768L5.08496 3.144C5.29196 3.05 5.51996 3 5.74996 3H7.99996L10.8 7.664C10.8612 7.76538 10.8935 7.88157 10.8935 8C10.8935 8.11843 10.8612 8.23462 10.8 8.336L7.99796 13H5.74896Z" fill="#FFCB6B"/>
</svg>

<svg xmlns="http://www.w3.org/2000/svg" width="16" height="16" fill="none"><path fill="#F78C6C" d="M5.085 3.144 6.5 5.501l-1.298 2.16a.65.65 0 0 0 0 .675l1.298 2.165-1.414 2.358a1.46 1.46 0 0 1-.634-.552L2.2 8.693C2.068 8.483 2 8.243 2 8s.069-.482.2-.693l2.25-3.614a1.46 1.46 0 0 1 .635-.549M11.548 3.693l2.25 3.614c.27.426.27.96 0 1.386l-2.25 3.614a1.45 1.45 0 0 1-.549.507 1.6 1.6 0 0 1-.75.186H8l2.8-4.664a.65.65 0 0 0 0-.672L7.998 3h2.25c.264 0 .523.064.75.186.228.122.418.297.55.507"/><path fill="#FFCB6B" d="M5.749 13c-.23 0-.462-.05-.664-.141l2.776-4.627a.45.45 0 0 0 0-.464L5.085 3.144C5.292 3.05 5.52 3 5.75 3h2.25l2.8 4.664a.65.65 0 0 1 0 .672L7.998 13z"/></svg>
